!! 00006] TT[TB
!! NN
!!!OTL: Cai diao
!!!ARE: Yunnan, Kunming
!! Ethnic Group: Yi
!! II,  77
!!!SCT: C0145
!!!YEM: Copyright 1995, estate of Helmut Schaffrath.
**kern
*ICvox
*Ivox
*M2/4
*k[f#c#g#]
*A:
{8ee
8aa
=1
8aa
16ff#
16ee
16ee
16ee
16ff#
16ee
=2
16ee
16ee
16.g#
32a
16a
16a
8b}
=3
{16b
16ee
8g#
16g#
32e
32a
8b
=4
16ee
32g#
32a
8g#
16a
16b
8b}
=5
{16b
16ee
16g#
16g#
16ee
16g#
32g#
32a
16b
=6
16dd
32g#
32a
16g#
16g#
8a
8b}
=7
{8b
4a
8f#
=8
2e}
==
!!!AGN: Dui hua; Raetsel- Spiel; Kinderlied
!!    Kinder - Lied ( Raetsel - Spiel fuer Kinder )
!! Taktvarianten angegeben; Verzierungen; evtl. Dialekt. 2 Strophen.
!!    Sonderzeichen: v.d. Sprache abgeleitetes Verlassen der Tonhoehe
!!    Als Tonbeispiel vorhanden; Signatur: 00151, Cut Nr.: 04
!!    Urspruenglich von der Yi - Nationalitaet. Wird aber auch
!!    von Han gesungen. +++ Aufnahmen von C0068 absuchen +++
!!    +++AUCH AUF KASS. 3= 48, CUT 06 (B-seite)
!!    Vereinzelt Verzierungen. Gesungen: VARIANTE
!!    Pinyin-Text der ersten Strophe vorhanden!
!!!ONB: ESAC (Essen Associative Code) Database: CHINA_096
!!!AMT: simple duple
!!!AIN: vox
!!!EED: Helmut Schaffrath
!!!EEV: 1.0
*-
